build/img/icon_match_add.svg

<svg width="25" height="12" viewBox="0 0 25 12" fill="none" xmlns="http://www.w3.org/2000/svg">
<path fill-rule="evenodd" clip-rule="evenodd" d="M0 0.857143C0 1.33053 0.383756 1.71429 0.857143 1.71429H14.5714C15.0448 1.71429 15.4286 1.33053 15.4286 0.857143C15.4286 0.383756 15.0448 0 14.5714 0H0.857144C0.383757 0 0 0.383756 0 0.857143ZM14.5714 6.85714C15.0448 6.85714 15.4286 6.47339 15.4286 6C15.4286 5.52661 15.0448 5.14286 14.5714 5.14286H0.857144C0.383757 5.14286 0 5.52661 0 6C0 6.47339 0.383756 6.85714 0.857143 6.85714H14.5714ZM14.5714 12C15.0448 12 15.4286 11.6162 15.4286 11.1429C15.4286 10.6695 15.0448 10.2857 14.5714 10.2857H0.857144C0.383757 10.2857 0 10.6695 0 11.1429C0 11.6162 0.383756 12 0.857143 12H14.5714ZM24.8571 6C24.8571 6.47339 24.4734 6.85714 24 6.85714H22.2857V8.57143C22.2857 9.04482 21.902 9.42857 21.4286 9.42857C20.9552 9.42857 20.5714 9.04482 20.5714 8.57143V6.85714H18.8571C18.3838 6.85714 18 6.47339 18 6C18 5.52661 18.3838 5.14286 18.8571 5.14286H20.5714V3.42857C20.5714 2.95518 20.9552 2.57143 21.4286 2.57143C21.902 2.57143 22.2857 2.95518 22.2857 3.42857V5.14286H24C24.4734 5.14286 24.8571 5.52661 24.8571 6Z" fill="#9B8869"/>
</svg>

<svg width="25" height="12" fill="none" xmlns="http://www.w3.org/2000/svg"><path fill-rule="evenodd" clip-rule="evenodd" d="M0 .857c0 .474.384.857.857.857h13.714a.857.857 0 100-1.714H.857A.857.857 0 000 .857zm14.571 6a.857.857 0 100-1.714H.857a.857.857 0 100 1.714h13.714zm0 5.143a.857.857 0 000-1.714H.857a.857.857 0 000 1.714h13.714zm10.286-6a.857.857 0 01-.857.857h-1.714v1.714a.857.857 0 11-1.715 0V6.857h-1.714a.857.857 0 010-1.714h1.714V3.429a.857.857 0 011.715 0v1.714H24c.473 0 .857.384.857.857z" fill="#9B8869"/></svg>
